;FLAVOR:Marlin
;TIME:559
;Filament used: 0.30619m
;Layer height: 0.16
;MINX:93
;MINY:99.002
;MINZ:0.32
;MAXX:127
;MAXY:128
;MAXZ:9.08
;TARGET_MACHINE.NAME:Creality Ender-3 V3 SE
;Generated with Cura_SteamEngine 5.10.2
M220 S100 ;Reset Feedrate
M221 S100 ;Reset Flowrate

G28 ;Home

M420 S1; Use saved mesh leveling data

G92 E0 ;Reset Extruder
G1 Z2.0 F3000 ;Move Z Axis up
G1 X-3 Y20 Z0.28 F5000.0 ;Move to start position
M190 S80 ; Set bed temperature and wait
M109 S245 ; Set hotend temperature and wait
G1 X-3 Y100.0 Z0.28 F1500.0 E15 ;Draw the first line
G1 X-2 Y100.0 Z0.28 F5000.0 ;Move to side a little
G1 X-2 Y20 Z0.28 F1500.0 E30 ;Draw the second line
G92 E0 ;Reset Extruder
G1 E-1.0000 F1800 ;Retract a bit
G1 Z2.0 F3000 ;Move Z Axis up
G1 E0.0000 F1800 

M82 ;absolute extrusion mode
G92 E0
G92 E0
G1 F2400 E-0.8
;LAYER_COUNT:47
;LAYER:0
M107
M204 S4000
M205 X8 Y8
G1 F300 Z0.52
G0 F6000 X96.331 Y102.232 Z0.52
M204 S3000
;TYPE:SKIRT
G1 F300 Z0.32
G1 F2400 E0
G1 F900 X97.055 Y101.581 E0.05181
G1 X97.838 Y100.992 E0.10395
G1 X98.803 Y100.402 E0.16415
G1 X99.672 Y99.965 E0.21591
G1 X100.545 Y99.617 E0.26592
G1 X101.511 Y99.329 E0.31956
G1 X102.395 Y99.146 E0.36761
G1 X103.427 Y99.027 E0.42289
G1 X104.143 Y99.002 E0.46101
G1 X115.865 Y99.002 E1.08482
G1 X116.767 Y99.042 E1.13286
G1 X117.802 Y99.182 E1.18844
G1 X118.757 Y99.4 E1.24057
G1 X119.822 Y99.753 E1.30028
G1 X120.833 Y100.197 E1.35904
G1 X121.683 Y100.671 E1.41083
G1 X122.489 Y101.218 E1.46267
G1 X123.217 Y101.811 E1.51264
G1 X123.943 Y102.52 E1.56664
G1 X124.692 Y103.408 E1.62846
G1 X125.254 Y104.203 E1.68027
G1 X125.744 Y105.044 E1.73207
G1 X126.13 Y105.861 E1.78015
G1 X126.49 Y106.842 E1.83576
G1 X126.742 Y107.783 E1.8876
G1 X126.91 Y108.759 E1.94031
G1 X127 Y110.148 E2.01438
G1 X127 Y111.636 E2.09357
G1 X126.96 Y112.538 E2.14161
G1 X126.875 Y113.184 E2.17629
G1 X126.976 Y114.08 E2.22427
G1 X127 Y114.81 E2.26314
G1 X126.998 Y116.875 E2.37303
G1 X126.957 Y117.777 E2.42108
G1 X126.817 Y118.814 E2.47677
G1 X126.606 Y119.735 E2.52705
G1 X126.159 Y121.041 E2.60051
G1 X125.709 Y122.017 E2.6577
G1 X125.258 Y122.799 E2.70574
G1 X124.657 Y123.655 E2.7614
G1 X124.028 Y124.397 E2.81317
G1 X123.335 Y125.082 E2.86502
G1 X122.641 Y125.659 E2.91305
G1 X121.93 Y126.16 E2.95934
G1 X121.158 Y126.629 E3.00741
G1 X120.219 Y127.089 E3.06305
G1 X119.309 Y127.438 E3.11492
G1 X118.372 Y127.704 E3.16675
G1 X117.417 Y127.886 E3.21849
G1 X116.458 Y127.983 E3.26978
G1 X115.838 Y128 E3.30279
G1 X104.133 Y127.998 E3.92568
G1 X103.231 Y127.958 E3.97373
G1 X102.196 Y127.818 E4.02931
G1 X101.246 Y127.602 E4.08116
G1 X100.356 Y127.315 E4.13092
G1 X99.621 Y127.013 E4.17321
G1 X98.78 Y126.597 E4.22314
G1 X97.918 Y126.071 E4.27688
G1 X97.136 Y125.491 E4.32869
G1 X96.433 Y124.869 E4.37864
G1 X95.74 Y124.134 E4.4324
G1 X95.156 Y123.394 E4.48257
G1 X94.475 Y122.328 E4.54988
G1 X93.996 Y121.397 E4.6056
G1 X93.606 Y120.421 E4.66153
G1 X93.329 Y119.489 E4.71328
G1 X93.146 Y118.605 E4.76132
G1 X93.027 Y117.573 E4.8166
G1 X93.002 Y116.839 E4.85568
G1 X93 Y114.775 E4.96552
G1 X93.042 Y113.837 E5.01549
G1 X93.123 Y113.225 E5.04834
G1 X93.024 Y112.321 E5.09673
G1 X93 Y111.57 E5.13672
G1 X93.004 Y110.095 E5.21521
G1 X93.047 Y109.193 E5.26327
G1 X93.189 Y108.158 E5.31887
G1 X93.407 Y107.209 E5.37068
G1 X93.685 Y106.35 E5.41873
G1 X94.089 Y105.395 E5.47391
G1 X94.525 Y104.563 E5.5239
G1 X95.07 Y103.715 E5.57754
G1 X95.668 Y102.946 E5.62938
G1 X96.331 Y102.232 E5.68123
M204 S4000
G0 F6000 X96.868 Y102.825
M204 S3000
G1 F900 X97.537 Y102.219 E5.72927
G1 X98.257 Y101.674 E5.77733
G1 X99.164 Y101.116 E5.834
G1 X99.969 Y100.708 E5.88202
G1 X100.808 Y100.372 E5.93012
G1 X101.673 Y100.113 E5.97817
G1 X102.557 Y99.93 E6.02621
G1 X103.455 Y99.827 E6.07431
G1 X104.171 Y99.802 E6.11244
G1 X115.829 Y99.802 E6.73283
G1 X116.731 Y99.842 E6.78088
G1 X117.626 Y99.962 E6.82893
G1 X118.507 Y100.16 E6.87699
G1 X119.537 Y100.5 E6.93471
G1 X120.445 Y100.897 E6.98745
G1 X121.235 Y101.334 E7.03549
G1 X121.984 Y101.839 E7.08356
G1 X122.685 Y102.408 E7.13161
G1 X123.333 Y103.037 E7.17967
G1 X124.04 Y103.871 E7.23785
G1 X124.564 Y104.607 E7.28593
G1 X125.02 Y105.386 E7.33397
G1 X125.406 Y106.203 E7.38205
G1 X125.718 Y107.05 E7.43009
G1 X125.954 Y107.922 E7.47816
G1 X126.112 Y108.811 E7.52621
G1 X126.2 Y110.148 E7.59752
G1 X126.2 Y111.6 E7.67479
G1 X126.16 Y112.502 E7.72284
G1 X126.045 Y113.362 E7.76901
G1 X126.08 Y113.238 E7.77587
G1 X126.178 Y114.136 E7.82394
G1 X126.2 Y114.81 E7.85982
G1 X126.198 Y116.839 E7.9678
G1 X126.157 Y117.741 E8.01585
G1 X126.037 Y118.636 E8.0639
G1 X125.837 Y119.517 E8.11198
G1 X125.432 Y120.707 E8.17888
G1 X125.015 Y121.617 E8.23214
G1 X124.564 Y122.399 E8.28018
G1 X124.045 Y123.139 E8.32828
G1 X123.464 Y123.829 E8.37629
G1 X122.823 Y124.466 E8.42438
G1 X122.129 Y125.043 E8.47241
G1 X121.514 Y125.476 E8.51243
G1 X120.742 Y125.945 E8.5605
G1 X119.932 Y126.343 E8.60853
G1 X119.089 Y126.669 E8.65663
G1 X118.221 Y126.918 E8.70468
G1 X117.335 Y127.09 E8.75271
G1 X116.436 Y127.183 E8.80081
G1 X115.838 Y127.2 E8.83265
G1 X104.169 Y127.198 E9.45363
G1 X103.267 Y127.158 E9.50168
G1 X102.372 Y127.038 E9.54973
G1 X101.491 Y126.84 E9.59778
G1 X100.631 Y126.564 E9.64585
G1 X99.975 Y126.295 E9.68358
G1 X99.165 Y125.896 E9.73163
G1 X98.393 Y125.427 E9.7797
G1 X97.666 Y124.891 E9.82777
G1 X96.989 Y124.294 E9.8758
G1 X96.368 Y123.638 E9.92387
G1 X95.807 Y122.93 E9.97194
G1 X95.187 Y121.962 E10.03312
G1 X94.708 Y121.031 E10.08883
G1 X94.372 Y120.192 E10.13693
G1 X94.113 Y119.327 E10.18498
G1 X93.93 Y118.443 E10.23302
G1 X93.827 Y117.545 E10.28112
G1 X93.802 Y116.839 E10.31872
G1 X93.8 Y114.81 E10.42669
G1 X93.839 Y113.908 E10.47474
G1 X93.955 Y113.035 E10.52161
G1 X93.92 Y113.162 E10.52862
G1 X93.822 Y112.264 E10.57669
G1 X93.8 Y111.572 E10.61353
G1 X93.804 Y110.133 E10.69011
G1 X93.847 Y109.231 E10.73817
G1 X93.969 Y108.336 E10.78623
G1 X94.169 Y107.455 E10.83431
G1 X94.447 Y106.596 E10.88236
G1 X94.799 Y105.765 E10.93038
G1 X95.217 Y104.964 E10.97847
G1 X95.703 Y104.204 E11.02647
G1 X96.255 Y103.489 E11.07454
G1 X96.868 Y102.825 E11.12263
M204 S4000
G0 F6000 X96.599 Y102.529
M204 S3000
G1 F900 X97.296 Y101.9 E11.1726
G1 X98.047 Y101.333 E11.22267
G1 X98.983 Y100.759 E11.2811
G1 X99.82 Y100.337 E11.33099
G1 X100.693 Y99.989 E11.381
G1 X101.592 Y99.721 E11.43092
G1 X102.476 Y99.538 E11.47896
G1 X103.441 Y99.427 E11.53065
G1 X104.157 Y99.402 E11.56878
G1 X115.847 Y99.402 E12.19088
G1 X116.749 Y99.442 E12.23893
G1 X117.714 Y99.572 E12.29074
G1 X118.632 Y99.78 E12.34083
G1 X119.662 Y100.12 E12.39856
G1 X120.639 Y100.547 E12.4553
G1 X121.459 Y101.002 E12.5052
G1 X122.236 Y101.528 E12.55513
G1 X122.964 Y102.121 E12.6051
G1 X123.638 Y102.778 E12.65519
G1 X124.366 Y103.639 E12.71519
G1 X124.909 Y104.405 E12.76516
G1 X125.382 Y105.215 E12.81508
G1 X125.768 Y106.032 E12.86316
G1 X126.104 Y106.946 E12.91498
G1 X126.348 Y107.852 E12.96492
G1 X126.511 Y108.785 E13.01532
G1 X126.6 Y110.148 E13.08801
G1 X126.6 Y111.618 E13.16624
G1 X126.56 Y112.52 E13.21428
G1 X126.472 Y113.18 E13.24972
G1 X126.576 Y114.093 E13.29862
G1 X126.6 Y114.81 E13.33679
G1 X126.598 Y116.857 E13.44573
G1 X126.557 Y117.759 E13.49378
G1 X126.427 Y118.725 E13.54565
G1 X126.216 Y119.646 E13.59593
G1 X125.796 Y120.874 E13.665
G1 X125.362 Y121.817 E13.72024
G1 X124.911 Y122.599 E13.76828
G1 X124.351 Y123.397 E13.82016
G1 X123.746 Y124.113 E13.87004
G1 X123.079 Y124.774 E13.92002
G1 X122.385 Y125.351 E13.96805
G1 X121.722 Y125.818 E14.0112
G1 X120.95 Y126.287 E14.05927
G1 X120.076 Y126.716 E14.11108
G1 X119.199 Y127.053 E14.16108
G1 X118.297 Y127.311 E14.21101
G1 X117.376 Y127.488 E14.26092
G1 X116.447 Y127.583 E14.31061
G1 X115.838 Y127.6 E14.34303
G1 X104.151 Y127.598 E14.96497
G1 X103.249 Y127.558 E15.01302
G1 X102.284 Y127.428 E15.06484
G1 X101.369 Y127.221 E15.11476
G1 X100.479 Y126.934 E15.16452
G1 X99.798 Y126.654 E15.20371
G1 X98.957 Y126.238 E15.25364
G1 X98.156 Y125.749 E15.30358
G1 X97.401 Y125.191 E15.35354
G1 X96.724 Y124.594 E15.40158
G1 X96.054 Y123.886 E15.45345
G1 X95.47 Y123.146 E15.50362
G1 X94.831 Y122.145 E15.56681
G1 X94.352 Y121.214 E15.62253
G1 X93.989 Y120.307 E15.67452
G1 X93.721 Y119.408 E15.72444
G1 X93.538 Y118.524 E15.77248
G1 X93.427 Y117.559 E15.82417
G1 X93.402 Y116.839 E15.86251
G1 X93.4 Y114.793 E15.97139
G1 X93.442 Y113.855 E16.02136
G1 X93.526 Y113.226 E16.05513
G1 X93.422 Y112.277 E16.10594
G1 X93.4 Y111.571 E16.14352
G1 X93.404 Y110.114 E16.22106
G1 X93.447 Y109.212 E16.26912
G1 X93.579 Y108.247 E16.32095
G1 X93.788 Y107.332 E16.37089
G1 X94.066 Y106.473 E16.41894
G1 X94.444 Y105.58 E16.47055
G1 X94.862 Y104.779 E16.51863
G1 X95.386 Y103.96 E16.57037
G1 X95.961 Y103.218 E16.62032
G1 X96.599 Y102.529 E16.67029
M204 S4000
G1 F2400 E15.87029
G1 F300 Z0.52
G0 F6000 X105.423 Y104.198 Z0.52
M204 S3000
G1 F300 Z0.32
G1 F2400 E16.67029
G1 F900 X105.887 Y103.805 E16.70265
G1 X106.267 Y103.523 E16.72784
G1 X106.551 Y103.341 E16.74579
G1 X106.865 Y103.163 E16.76499
G1 X107.134 Y103.026 E16.78106
G1 X107.43 Y102.893 E16.79833
G1 X107.899 Y102.717 E16.82499
G1 X108.234 Y102.612 E16.84367
G1 X108.544 Y102.537 E16.86064
G1 X108.992 Y102.45 E16.88493
G1 X109.355 Y102.407 E16.90438
G1 X109.834 Y102.376 E16.92992
G1 X110.166 Y102.376 E16.94759
G1 X110.66 Y102.408 E16.97394
G1 X111.136 Y102.474 E16.99951
G1 X111.417 Y102.528 E17.01474
G1 X111.762 Y102.611 E17.03362
G1 X112.123 Y102.723 E17.05373
G1 X112.449 Y102.845 E17.07226
G1 X112.718 Y102.958 E17.08779
G1 X112.998 Y103.089 E17.10424
G1 X113.281 Y103.243 E17.12138
G1 X113.577 Y103.419 E17.13971
G1 X113.84 Y103.598 E17.15664
G1 X114.253 Y103.922 E17.18457
G1 X114.506 Y104.142 E17.20241
G1 X114.736 Y104.364 E17.21943
G1 X115.045 Y104.704 E17.24387
G1 X115.498 Y105.293 E17.28342
G1 X115.746 Y105.701 E17.30883
G1 X115.892 Y105.966 E17.32493
G1 X116.046 Y106.284 E17.34373
G1 X116.199 Y106.66 E17.36533
G1 X116.311 Y106.974 E17.38307
G1 X116.477 Y107.598 E17.41743
G1 X116.543 Y107.949 E17.43644
G1 X116.588 Y108.276 E17.45401
G1 X116.616 Y108.612 E17.47195
G1 X116.627 Y109.24 E17.50537
G1 X116.053 Y109.016 E17.53816
G1 X115.98 Y109.002 E17.54212
G1 X113.3 Y109.002 E17.68474
G1 X113.257 Y108.523 E17.71033
G1 X113.254 Y108.502 E17.71146
G1 X113.171 Y108.081 E17.7343
G1 X113.165 Y108.058 E17.73556
G1 X113.063 Y107.743 E17.75318
G1 X113.053 Y107.719 E17.75456
G1 X112.899 Y107.397 E17.77356
G1 X112.889 Y107.377 E17.77475
G1 X112.656 Y107.003 E17.7982
G1 X112.635 Y106.976 E17.80002
G1 X112.291 Y106.59 E17.82753
G1 X112.267 Y106.567 E17.8293
G1 X111.869 Y106.247 E17.85648
G1 X111.843 Y106.229 E17.85816
G1 X111.418 Y105.987 E17.88419
G1 X111.39 Y105.974 E17.88583
G1 X111.037 Y105.84 E17.90593
G1 X111.017 Y105.833 E17.90705
G1 X110.584 Y105.72 E17.93087
G1 X110.553 Y105.715 E17.93254
G1 X110.098 Y105.669 E17.95688
G1 X110.066 Y105.668 E17.95858
G1 X109.665 Y105.692 E17.97996
G1 X109.643 Y105.695 E17.98114
G1 X109.196 Y105.773 E18.00529
G1 X109.167 Y105.78 E18.00687
G1 X108.686 Y105.941 E18.03387
G1 X108.655 Y105.954 E18.03565
G1 X108.229 Y106.181 E18.06134
G1 X108.203 Y106.198 E18.063
G1 X107.863 Y106.454 E18.08564
G1 X107.845 Y106.469 E18.08689
G1 X107.547 Y106.752 E18.10876
G1 X107.526 Y106.776 E18.11046
G1 X107.288 Y107.09 E18.13143
G1 X107.275 Y107.108 E18.13261
G1 X107.07 Y107.45 E18.15383
G1 X107.057 Y107.478 E18.15547
G1 X106.872 Y107.932 E18.18156
G1 X106.862 Y107.964 E18.18334
G1 X106.769 Y108.387 E18.20639
G1 X106.765 Y108.409 E18.20758
G1 X106.702 Y109.002 E18.23932
G1 X103.96 Y109.002 E18.38523
G1 X103.862 Y109.028 E18.39063
G1 X103.514 Y109.224 E18.41188
G1 X103.363 Y109.129 E18.42138
G1 X103.425 Y108.169 E18.47257
G1 X103.521 Y107.603 E18.50312
G1 X103.654 Y107.071 E18.53231
G1 X103.831 Y106.579 E18.56013
G1 X104.055 Y106.07 E18.58972
G1 X104.263 Y105.681 E18.6132
G1 X104.566 Y105.208 E18.64309
G1 X104.75 Y104.958 E18.65961
G1 X105.065 Y104.578 E18.68588
G1 X105.423 Y104.198 E18.71366
M204 S4000
G0 F6000 X105.701 Y104.487
M204 S3000
G1 F900 X106.13 Y104.123 E18.7436
G1 X106.494 Y103.853 E18.76772
G1 X106.761 Y103.682 E18.78459
G1 X107.048 Y103.519 E18.80216
G1 X107.309 Y103.386 E18.81774
G1 X107.576 Y103.266 E18.83332
G1 X108.035 Y103.094 E18.85941
G1 X108.345 Y102.997 E18.87669
G1 X108.617 Y102.931 E18.89159
G1 X109.06 Y102.844 E18.91561
G1 X109.391 Y102.805 E18.93335
G1 X109.843 Y102.776 E18.95745
G1 X110.155 Y102.776 E18.97406
G1 X110.621 Y102.806 E18.99891
G1 X111.061 Y102.867 E19.02255
G1 X111.34 Y102.921 E19.03767
G1 X111.655 Y102.997 E19.05491
G1 X111.983 Y103.098 E19.07318
G1 X112.307 Y103.22 E19.0916
G1 X112.564 Y103.327 E19.10641
G1 X112.814 Y103.444 E19.1211
G1 X113.09 Y103.594 E19.13782
G1 X113.358 Y103.754 E19.15443
G1 X113.604 Y103.922 E19.17028
G1 X113.99 Y104.224 E19.19636
G1 X114.251 Y104.451 E19.21477
G1 X114.447 Y104.641 E19.2293
G1 X114.743 Y104.966 E19.25269
G1 X115.163 Y105.513 E19.28939
G1 X115.404 Y105.909 E19.31406
G1 X115.538 Y106.154 E19.32892
G1 X115.678 Y106.441 E19.34592
G1 X115.831 Y106.819 E19.36762
G1 X115.928 Y107.093 E19.38309
G1 X116.087 Y107.691 E19.41601
G1 X116.146 Y108.004 E19.43296
G1 X116.192 Y108.34 E19.45101
G1 X116.216 Y108.639 E19.46697
G1 X116.217 Y108.65 E19.46756
G1 X116.198 Y108.643 E19.46864
G1 X115.98 Y108.602 E19.48044
G1 X113.666 Y108.602 E19.60359
G1 X113.656 Y108.487 E19.60973
G1 X113.647 Y108.425 E19.61306
G1 X113.564 Y108.004 E19.6359
G1 X113.546 Y107.935 E19.63969
G1 X113.444 Y107.62 E19.65731
G1 X113.414 Y107.546 E19.66156
G1 X113.26 Y107.224 E19.68056
G1 X113.228 Y107.166 E19.68408
G1 X112.995 Y106.792 E19.70753
G1 X112.934 Y106.71 E19.71297
G1 X112.59 Y106.324 E19.74049
G1 X112.518 Y106.255 E19.74579
G1 X112.12 Y105.935 E19.77297
G1 X112.041 Y105.882 E19.77803
G1 X111.616 Y105.64 E19.80406
G1 X111.532 Y105.6 E19.80901
G1 X111.179 Y105.466 E19.8291
G1 X111.118 Y105.446 E19.83252
G1 X110.685 Y105.333 E19.85633
G1 X110.593 Y105.317 E19.8613
G1 X110.138 Y105.271 E19.88564
G1 X110.042 Y105.269 E19.89075
G1 X109.641 Y105.293 E19.91213
G1 X109.574 Y105.301 E19.91572
G1 X109.127 Y105.379 E19.93987
G1 X109.04 Y105.401 E19.94464
G1 X108.559 Y105.562 E19.97163
G1 X108.467 Y105.601 E19.97695
G1 X108.041 Y105.828 E20.00264
G1 X107.962 Y105.879 E20.00764
G1 X107.622 Y106.135 E20.03029
G1 X107.57 Y106.179 E20.03392
G1 X107.272 Y106.462 E20.05579
G1 X107.207 Y106.535 E20.06099
G1 X106.969 Y106.849 E20.08196
G1 X106.932 Y106.903 E20.08544
G1 X106.727 Y107.245 E20.10666
G1 X106.686 Y107.327 E20.11154
G1 X106.501 Y107.781 E20.13763
G1 X106.471 Y107.878 E20.14303
G1 X106.378 Y108.301 E20.16608
G1 X106.367 Y108.367 E20.16964
G1 X106.342 Y108.602 E20.18222
G1 X103.96 Y108.602 E20.30898
G1 X103.795 Y108.645 E20.31805
G1 X103.822 Y108.224 E20.3405
G1 X103.916 Y107.672 E20.3703
G1 X104.036 Y107.192 E20.39663
G1 X104.21 Y106.71 E20.4239
G1 X104.412 Y106.251 E20.45059
G1 X104.613 Y105.876 E20.47323
G1 X104.886 Y105.449 E20.5002
G1 X105.071 Y105.198 E20.51679
G1 X105.363 Y104.845 E20.54117
G1 X105.701 Y104.487 E20.56737
M204 S4000
G0 F6000 X105.978 Y104.777
M204 S3000
G1 F900 X106.385 Y104.431 E20.5958
G1 X106.713 Y104.188 E20.61752
G1 X106.974 Y104.021 E20.63401
G1 X107.239 Y103.87 E20.65024
G1 X107.484 Y103.746 E20.66486
G1 X107.729 Y103.636 E20.67915
G1 X108.169 Y103.47 E20.70417
G1 X108.441 Y103.385 E20.71934
G1 X108.718 Y103.318 E20.73451
G1 X109.117 Y103.24 E20.75614
G1 X109.428 Y103.203 E20.77281
G1 X109.854 Y103.176 E20.79552
G1 X110.145 Y103.176 E20.81101
G1 X110.568 Y103.203 E20.83357
G1 X111.005 Y103.264 E20.85705
G1 X111.257 Y103.313 E20.87071
G1 X111.555 Y103.384 E20.88701
G1 X111.861 Y103.479 E20.90406
G1 X112.157 Y103.59 E20.92088
G1 X112.378 Y103.682 E20.93362
G1 X112.652 Y103.81 E20.94972
G1 X112.866 Y103.927 E20.9627
G1 X113.149 Y104.095 E20.98021
G1 X113.364 Y104.242 E20.99407
G1 X113.745 Y104.54 E21.01981
G1 X113.971 Y104.738 E21.0358
G1 X114.171 Y104.931 E21.05059
G1 X114.43 Y105.215 E21.07105
G1 X114.836 Y105.744 E21.10653
G1 X115.052 Y106.098 E21.1286
G1 X115.182 Y106.335 E21.14299
G1 X115.313 Y106.607 E21.15905
G1 X115.45 Y106.943 E21.17836
G1 X115.548 Y107.218 E21.1939
G1 X115.696 Y107.774 E21.22452
