;FLAVOR:Marlin
;TIME:1706
;Filament used: 1.46933m
;Layer height: 0.16
;MINX:80.9
;MINY:94.5
;MINZ:0.32
;MAXX:139.1
;MAXY:125.5
;MAXZ:11.92
;TARGET_MACHINE.NAME:Creality Ender-3 V3 SE
;Generated with Cura_SteamEngine 5.10.2
M220 S100 ;Reset Feedrate
M221 S100 ;Reset Flowrate

G28 ;Home

M420 S1; Use saved mesh leveling data

G92 E0 ;Reset Extruder
G1 Z2.0 F3000 ;Move Z Axis up
G1 X-3 Y20 Z0.28 F5000.0 ;Move to start position
M190 S80 ; Set bed temperature and wait
M109 S245 ; Set hotend temperature and wait
G1 X-3 Y100.0 Z0.28 F1500.0 E15 ;Draw the first line
G1 X-2 Y100.0 Z0.28 F5000.0 ;Move to side a little
G1 X-2 Y20 Z0.28 F1500.0 E30 ;Draw the second line
G92 E0 ;Reset Extruder
G1 E-1.0000 F1800 ;Retract a bit
G1 Z2.0 F3000 ;Move Z Axis up
G1 E0.0000 F1800 

M82 ;absolute extrusion mode
G92 E0
G92 E0
G1 F2400 E-0.8
;LAYER_COUNT:59
;LAYER:0
M107
M204 S4000
M205 X8 Y8
G1 F300 Z0.52
G0 F6000 X84.565 Y97.418 Z0.52
M204 S3000
;TYPE:SKIRT
G1 F300 Z0.32
G1 F2400 E0
G1 F900 X85.291 Y96.817 E0.05016
G1 X86.285 Y96.146 E0.11398
G1 X87.244 Y95.619 E0.17221
G1 X88.207 Y95.204 E0.22801
G1 X89.133 Y94.901 E0.27986
G1 X90.012 Y94.696 E0.32789
G1 X91.051 Y94.549 E0.38374
G1 X92.06 Y94.502 E0.43749
G1 X93.98 Y94.5 E0.53966
G1 X94.952 Y94.545 E0.59145
G1 X95.736 Y94.649 E0.63353
G1 X96.273 Y94.568 E0.66243
G1 X97.46 Y94.504 E0.72569
G1 X127.995 Y94.5 E2.35065
G1 X128.967 Y94.546 E2.40243
G1 X129.862 Y94.665 E2.45048
G1 X130.881 Y94.896 E2.50609
G1 X131.807 Y95.195 E2.55787
G1 X132.673 Y95.561 E2.6079
G1 X133.565 Y96.036 E2.66168
G1 X134.378 Y96.568 E2.71339
G1 X135.143 Y97.17 E2.76519
G1 X135.852 Y97.838 E2.81703
G1 X136.484 Y98.545 E2.86749
G1 X137.114 Y99.364 E2.92248
G1 X137.636 Y100.186 E2.9743
G1 X138.083 Y101.051 E3.02611
G1 X138.452 Y101.953 E3.07798
G1 X138.739 Y102.884 E3.12982
G1 X138.943 Y103.835 E3.18158
G1 X139.062 Y104.799 E3.23327
G1 X139.096 Y105.656 E3.27891
G1 X139.1 Y114.295 E3.73865
G1 X139.054 Y115.267 E3.79043
G1 X138.935 Y116.163 E3.83853
G1 X138.704 Y117.185 E3.89429
G1 X138.385 Y118.164 E3.94909
G1 X137.986 Y119.112 E4.00382
G1 X137.489 Y120.038 E4.05975
G1 X136.952 Y120.849 E4.11151
G1 X136.345 Y121.61 E4.16331
G1 X135.673 Y122.316 E4.21518
G1 X134.935 Y122.964 E4.26745
G1 X133.995 Y123.64 E4.32906
G1 X133.006 Y124.217 E4.39
G1 X132.087 Y124.64 E4.44383
G1 X131.169 Y124.966 E4.49567
G1 X130.227 Y125.21 E4.54746
G1 X129.294 Y125.366 E4.5978
G1 X127.951 Y125.449 E4.6694
G1 X99.704 Y125.454 E6.1726
G1 X98.773 Y125.497 E6.2222
G1 X97.43 Y125.497 E6.29367
G1 X96.528 Y125.457 E6.34172
G1 X95.694 Y125.347 E6.38648
G1 X95.488 Y125.384 E6.39762
G1 X94.53 Y125.482 E6.44887
G1 X93.889 Y125.5 E6.48299
G1 X92.024 Y125.498 E6.58224
G1 X91.122 Y125.457 E6.63029
G1 X90.086 Y125.316 E6.68593
G1 X89.164 Y125.106 E6.73626
G1 X87.896 Y124.674 E6.80754
G1 X86.883 Y124.209 E6.86686
G1 X86.101 Y123.758 E6.9149
G1 X85.245 Y123.157 E6.97056
G1 X84.503 Y122.528 E7.02232
G1 X83.818 Y121.835 E7.07418
G1 X83.241 Y121.141 E7.12221
G1 X82.74 Y120.43 E7.16849
G1 X82.271 Y119.658 E7.21656
G1 X81.811 Y118.719 E7.27221
G1 X81.462 Y117.809 E7.32407
G1 X81.196 Y116.872 E7.37591
G1 X81.014 Y115.917 E7.42764
G1 X80.917 Y114.958 E7.47894
G1 X80.9 Y114.338 E7.51194
G1 X80.902 Y105.633 E7.97519
G1 X80.942 Y104.73 E8.02329
G1 X81.082 Y103.694 E8.07893
G1 X81.303 Y102.732 E8.13145
G1 X81.725 Y101.497 E8.20091
G1 X82.191 Y100.483 E8.26029
G1 X82.642 Y99.701 E8.30833
G1 X83.243 Y98.845 E8.36399
G1 X83.872 Y98.103 E8.41576
G1 X84.565 Y97.418 E8.46761
M204 S4000
G0 F6000 X85.077 Y98.034
M204 S3000
G1 F900 X85.771 Y97.457 E8.51564
G1 X86.701 Y96.829 E8.57536
G1 X87.628 Y96.321 E8.63161
G1 X88.457 Y95.964 E8.67965
G1 X89.315 Y95.681 E8.72773
G1 X90.194 Y95.476 E8.77576
G1 X91.089 Y95.349 E8.82386
G1 X92.06 Y95.302 E8.8756
G1 X93.945 Y95.3 E8.97591
G1 X94.847 Y95.339 E9.02396
G1 X95.743 Y95.458 E9.07206
G1 X96.392 Y95.36 E9.10698
G1 X97.46 Y95.304 E9.1639
G1 X127.959 Y95.3 E10.78694
G1 X128.861 Y95.34 E10.83499
G1 X129.756 Y95.459 E10.88303
G1 X130.637 Y95.658 E10.9311
G1 X131.497 Y95.933 E10.97915
G1 X132.33 Y96.283 E11.02723
G1 X133.128 Y96.706 E11.0753
G1 X133.885 Y97.198 E11.12334
G1 X134.596 Y97.754 E11.17137
G1 X135.256 Y98.372 E11.21949
G1 X135.888 Y99.079 E11.26995
G1 X136.44 Y99.794 E11.31802
G1 X136.926 Y100.555 E11.36608
G1 X137.343 Y101.356 E11.41413
G1 X137.688 Y102.191 E11.46221
G1 X137.957 Y103.053 E11.51027
G1 X138.149 Y103.935 E11.5583
G1 X138.262 Y104.831 E11.60636
G1 X138.296 Y105.656 E11.6503
G1 X138.3 Y114.259 E12.10812
G1 X138.26 Y115.161 E12.15617
G1 X138.141 Y116.057 E12.20427
G1 X137.943 Y116.938 E12.25232
G1 X137.647 Y117.854 E12.30355
G1 X137.248 Y118.802 E12.35829
G1 X136.821 Y119.598 E12.40636
G1 X136.325 Y120.352 E12.45438
G1 X135.765 Y121.06 E12.50242
G1 X135.144 Y121.716 E12.55049
G1 X134.467 Y122.314 E12.59856
G1 X133.527 Y122.99 E12.66018
G1 X132.637 Y123.508 E12.71498
G1 X131.817 Y123.887 E12.76305
G1 X130.967 Y124.192 E12.81111
G1 X130.094 Y124.421 E12.85914
G1 X129.203 Y124.572 E12.90723
G1 X127.951 Y124.649 E12.97398
G1 X99.668 Y124.654 E14.4791
G1 X98.737 Y124.697 E14.52869
G1 X97.466 Y124.697 E14.59633
G1 X96.564 Y124.657 E14.64438
G1 X95.669 Y124.537 E14.69243
G1 X95.405 Y124.588 E14.70674
G1 X94.507 Y124.682 E14.75479
G1 X93.889 Y124.7 E14.78769
G1 X92.06 Y124.698 E14.88503
G1 X91.158 Y124.657 E14.93308
G1 X90.263 Y124.536 E14.98114
G1 X89.382 Y124.337 E15.0292
G1 X88.193 Y123.932 E15.09605
G1 X87.283 Y123.515 E15.14932
G1 X86.501 Y123.064 E15.19736
G1 X85.761 Y122.545 E15.24546
G1 X85.071 Y121.964 E15.29346
G1 X84.434 Y121.323 E15.34155
G1 X83.857 Y120.629 E15.38958
G1 X83.424 Y120.014 E15.42961
G1 X82.955 Y119.242 E15.47768
G1 X82.557 Y118.432 E15.5257
G1 X82.231 Y117.589 E15.5738
G1 X81.982 Y116.721 E15.62186
G1 X81.81 Y115.835 E15.66989
G1 X81.717 Y114.936 E15.71798
G1 X81.7 Y114.338 E15.74982
G1 X81.702 Y105.669 E16.21115
G1 X81.742 Y104.766 E16.25925
G1 X81.862 Y103.871 E16.30731
G1 X82.061 Y102.99 E16.35537
G1 X82.468 Y101.793 E16.42265
G1 X82.885 Y100.883 E16.47592
G1 X83.336 Y100.101 E16.52396
G1 X83.855 Y99.361 E16.57206
G1 X84.436 Y98.671 E16.62006
G1 X85.077 Y98.034 E16.66816
M204 S4000
G0 F6000 X84.821 Y97.726
M204 S3000
G1 F900 X85.515 Y97.149 E16.71619
G1 X86.509 Y96.478 E16.78001
G1 X87.436 Y95.97 E16.83626
G1 X88.332 Y95.584 E16.88818
G1 X89.224 Y95.291 E16.93814
G1 X90.103 Y95.086 E16.98617
G1 X91.07 Y94.949 E17.03815
G1 X92.06 Y94.902 E17.09089
G1 X93.962 Y94.9 E17.19211
G1 X94.9 Y94.942 E17.24208
G1 X95.739 Y95.053 E17.28711
G1 X96.332 Y94.964 E17.31902
G1 X97.46 Y94.904 E17.37914
G1 X127.977 Y94.9 E19.00314
G1 X128.914 Y94.943 E19.05305
G1 X129.809 Y95.062 E19.1011
G1 X130.759 Y95.277 E19.15293
G1 X131.652 Y95.564 E19.20285
G1 X132.485 Y95.914 E19.25093
G1 X133.346 Y96.371 E19.30281
G1 X134.131 Y96.883 E19.35268
G1 X134.869 Y97.462 E19.4026
G1 X135.554 Y98.105 E19.4526
G1 X136.186 Y98.812 E19.50306
G1 X136.777 Y99.579 E19.55459
G1 X137.281 Y100.37 E19.6045
G1 X137.713 Y101.203 E19.65444
G1 X138.07 Y102.072 E19.70443
G1 X138.348 Y102.968 E19.75436
G1 X138.546 Y103.885 E19.80428
G1 X138.662 Y104.815 E19.85416
G1 X138.696 Y105.656 E19.89895
G1 X138.7 Y114.277 E20.35772
G1 X138.657 Y115.214 E20.40764
G1 X138.538 Y116.11 E20.45574
G1 X138.324 Y117.061 E20.50761
G1 X138.016 Y118.009 E20.56066
G1 X137.617 Y118.957 E20.61539
G1 X137.155 Y119.818 E20.66739
G1 X136.639 Y120.6 E20.71725
G1 X136.055 Y121.335 E20.76721
G1 X135.409 Y122.016 E20.81716
G1 X134.701 Y122.639 E20.86735
G1 X133.761 Y123.315 E20.92896
G1 X132.805 Y123.871 E20.98782
G1 X131.952 Y124.263 E21.03777
G1 X131.068 Y124.579 E21.08773
G1 X130.161 Y124.815 E21.13761
G1 X129.228 Y124.971 E21.18795
G1 X127.951 Y125.049 E21.25603
G1 X99.686 Y125.054 E22.76019
G1 X98.755 Y125.097 E22.80978
G1 X97.448 Y125.097 E22.87934
G1 X96.546 Y125.057 E22.92739
G1 X95.683 Y124.942 E22.97372
G1 X95.447 Y124.986 E22.98649
G1 X94.519 Y125.082 E23.03614
G1 X93.889 Y125.1 E23.06968
G1 X92.042 Y125.098 E23.16797
G1 X91.14 Y125.057 E23.21602
G1 X90.175 Y124.926 E23.26785
G1 X89.253 Y124.716 E23.31817
G1 X88.026 Y124.296 E23.38718
G1 X87.083 Y123.862 E23.44243
G1 X86.301 Y123.411 E23.49047
G1 X85.503 Y122.851 E23.54235
G1 X84.787 Y122.246 E23.59223
G1 X84.126 Y121.579 E23.6422
G1 X83.549 Y120.885 E23.69023
G1 X83.082 Y120.222 E23.73339
G1 X82.613 Y119.45 E23.78146
G1 X82.184 Y118.576 E23.83327
G1 X81.847 Y117.699 E23.88327
G1 X81.589 Y116.797 E23.93319
G1 X81.412 Y115.876 E23.9831
G1 X81.317 Y114.947 E24.0328
G1 X81.3 Y114.338 E24.06522
G1 X81.302 Y105.651 E24.52751
G1 X81.342 Y104.748 E24.57561
G1 X81.472 Y103.783 E24.62743
G1 X81.682 Y102.861 E24.67775
G1 X82.104 Y101.626 E24.7472
G1 X82.538 Y100.683 E24.80245
G1 X82.989 Y99.901 E24.85049
G1 X83.549 Y99.103 E24.90237
G1 X84.154 Y98.387 E24.95225
G1 X84.821 Y97.726 E25.00222
M204 S4000
G1 F2400 E24.20222
G1 F300 Z0.52
;MESH:curtain_blocker.3mf
G0 F6000 X92.999 Y106.599 Z0.52
M204 S1000
;TYPE:WALL-INNER
G1 F300 Z0.32
G1 F2400 E25.00222
G1 F800 X93 Y107.311 E25.05906
G1 F788.2 X93.008 Y107.499 E25.0743
M204 S4000
G0 F6000 X93.031 Y112.332
M204 S1000
G1 F760.7 X93 Y112.7 E25.1053
G1 F800 X93 Y113.398 E25.16102
M204 S4000
G0 F6000 X93.444 Y112.014
G0 X94.005 Y111.658
G0 X97.276 Y111.652
G0 X97.815 Y111.86
G0 X98.148 Y112.475
G0 X98.151 Y113.32
G0 X110 Y113.45
M204 S1000
G1 F1200 X127.099 Y113.448 E26.07097
G1 X127.097 Y106.5 E26.44071
G1 X98.298 Y106.503 E27.97329
G1 X98.296 Y107.339 E28.01778
G1 X98.224 Y107.754 E28.04019
G1 X97.978 Y108.108 E28.06313
G1 X97.692 Y108.359 E28.08338
G1 X97.242 Y108.496 E28.10841
G1 X94.29 Y108.5 E28.26551
G1 X93.821 Y108.385 E28.29121
G1 X93.677 Y108.309 E28.29987
G1 F1153.8 X93.193 Y107.785 E28.33935
G1 F914.3 X93.008 Y107.499 E28.36314
G1 X92.917 Y107.835 E28.38745
G1 F1153.8 X92.901 Y108.777 E28.4396
G1 F1200 X92.9 Y111.333 E28.57562
G1 F987.7 X92.986 Y112.197 E28.63176
G1 F869.6 X93.024 Y112.312 E28.64065
G1 F963.9 X93.663 Y111.673 E28.70052
G1 F1111.1 X94.25 Y111.504 E28.73563
G1 F1200 X97.248 Y111.5 E28.89517
G1 X97.568 Y111.599 E28.913
G1 X97.889 Y111.795 E28.93301
G1 X98.038 Y111.966 E28.94508
G1 X98.246 Y112.325 E28.96716
G1 X98.3 Y112.688 E28.98669
G1 X98.3 Y113.496 E29.02969
G1 X98.54 Y113.496 E29.04246
G1 X98.828 Y113.452 E29.05797
G1 X110 Y113.45 E29.6525
M204 S4000
G0 F6000 X110 Y113.85
M204 S1000
G1 F1200 X127.499 Y113.848 E30.58373
G1 X127.497 Y106.1 E30.99605
G1 X97.899 Y106.103 E32.57114
G1 X97.896 Y107.338 E32.63687
G1 X97.861 Y107.538 E32.64767
G1 X97.673 Y107.849 E32.66701
G1 X97.541 Y107.965 E32.67636
G1 X97.195 Y108.096 E32.69605
G1 X94.289 Y108.1 E32.8507
G1 X93.909 Y108.007 E32.87152
G1 X93.582 Y107.637 E32.89779
G1 X93.5 Y107.385 E32.9119
G1 X93.497 Y106.099 E32.98033
G1 X92.5 Y106.1 E33.03339
G1 X92.5 Y113.896 E33.44826
G1 X93.5 Y113.899 E33.50148
G1 X93.5 Y112.7 E33.56528
G1 X93.576 Y112.377 E33.58294
G1 X93.862 Y112.016 E33.60745
G1 X94.251 Y111.904 E33.62899
G1 X97.198 Y111.9 E33.78582
G1 X97.427 Y111.974 E33.79863
G1 X97.674 Y112.123 E33.81398
G1 X97.9 Y112.562 E33.84026
G1 X97.9 Y113.896 E33.91125
G1 X98.608 Y113.896 E33.94892
G1 X98.828 Y113.852 E33.96086
G1 X110 Y113.85 E34.5554
M204 S4000
G0 F6000 X110 Y114.25
M204 S1000
;TYPE:WALL-OUTER
G1 F1200 X127.9 Y114.246 E35.50797
G1 X127.896 Y105.734 E35.96094
G1 X127.867 Y105.7 E35.96332
G1 X97.499 Y105.704 E37.57939
G1 X97.496 Y107.387 E37.66895
G1 X97.325 Y107.629 E37.68472
G1 X97.152 Y107.693 E37.69454
G1 X94.289 Y107.7 E37.8469
G1 X94.05 Y107.601 E37.86066
G1 X93.956 Y107.495 E37.8682
G1 X93.903 Y107.343 E37.87677
G1 X93.892 Y105.702 E37.9641
G1 X92.1 Y105.7 E38.05946
G1 X92.1 Y114.296 E38.51691
G1 X93.9 Y114.3 E38.6127
G1 X93.9 Y112.7 E38.69784
G1 X93.954 Y112.507 E38.70851
G1 X94.037 Y112.402 E38.71563
G1 X94.251 Y112.304 E38.72816
G1 X97.156 Y112.303 E38.88275
G1 X97.369 Y112.406 E38.89534
G1 X97.5 Y112.645 E38.90985
G1 X97.5 Y114.296 E38.99771
G1 X98.69 Y114.296 E39.06103
G1 X98.79 Y114.252 E39.06685
G1 X110 Y114.25 E39.6634
M204 S4000
G0 F6000 X110 Y113.542
G0 X110 Y113.091
M204 S1000
;TYPE:SKIN
G1 F1200 X98.66 Y113.093 E40.26687
G1 X98.658 Y112.666 E40.2896
G1 X98.588 Y112.196 E40.31488
G1 X98.319 Y111.739 E40.3431
G1 X98.06 Y111.445 E40.36395
G1 X97.679 Y111.256 E40.38659
G1 X97.296 Y111.14 E40.40788
G1 X94.22 Y111.144 E40.57158
G1 X93.572 Y111.331 E40.60747
G1 X93.425 Y111.412 E40.6164
G1 X93.26 Y111.601 E40.62975
G1 X93.26 Y108.365 E40.80196
G1 X93.481 Y108.616 E40.81976
G1 X93.692 Y108.719 E40.83225
G1 X94.244 Y108.855 E40.86251
G1 X97.291 Y108.856 E41.02465
G1 X97.714 Y108.728 E41.04817
G1 X97.958 Y108.598 E41.06289
G1 X98.252 Y108.339 E41.08374
G1 X98.449 Y108.052 E41.10226
G1 X98.565 Y107.812 E41.11645
G1 X98.653 Y107.373 E41.14027
G1 X98.656 Y106.86 E41.16757
G1 X126.736 Y106.86 E42.66189
G1 X126.736 Y113.088 E42.99332
G1 X110 Y113.091 E43.88394
M204 S4000
G0 F6000 X110 Y113.351
G0 X98.474 Y113.326
G0 X98.29 Y112.066
G0 X97.377 Y111.693
G0 X93.71 Y111.564
G0 X93.583 Y111.119
M204 S1000
G1 F1200 X93.46 Y110.997 E43.89316
M204 S4000
G0 F6000 X94.023 Y110.993
M204 S1000
G1 F1200 X93.46 Y110.431 E43.9355
M204 S4000
G0 F6000 X93.46 Y109.865
M204 S1000
G1 F1200 X94.539 Y110.944 E44.0167
M204 S4000
G0 F6000 X95.104 Y110.943
M204 S1000
G1 F1200 X93.46 Y109.3 E44.14039
M204 S4000
G0 F6000 X93.639 Y108.912
M204 S1000
G1 F1200 X95.669 Y110.942 E44.29316
M204 S4000
G0 F6000 X96.234 Y110.942
M204 S1000
G1 F1200 X94.353 Y109.061 E44.43473
M204 S4000
G0 F6000 X94.918 Y109.06
M204 S1000
G1 F1200 X96.799 Y110.941 E44.57629
M204 S4000
G0 F6000 X97.381 Y110.957
M204 S1000
G1 F1200 X95.483 Y109.059 E44.71913
M204 S4000
G0 F6000 X96.047 Y109.058
M204 S1000
G1 F1200 X99.88 Y112.891 E45.0076
M204 S4000
G0 F6000 X99.315 Y112.891
M204 S1000
G1 F1200 X98.82 Y112.397 E45.04481
M204 S4000
G0 F6000 X98.366 Y112.463
G0 X98.474 Y113.326
G0 X100.446 Y113.352
G0 X100.446 Y112.891
M204 S1000
G1 F1200 X96.612 Y109.057 E45.33336
M204 S4000
G0 F6000 X97.177 Y109.056
M204 S1000
G1 F1200 X101.012 Y112.891 E45.62198
M204 S4000
G0 F6000 X101.577 Y112.891
M204 S1000
G1 F1200 X97.643 Y108.957 E45.91805
M204 S4000
G0 F6000 X98.034 Y108.782
M204 S1000
G1 F1200 X102.143 Y112.891 E46.22729
M204 S4000
G0 F6000 X102.709 Y112.891
M204 S1000
G1 F1200 X98.342 Y108.524 E46.55594
M204 S4000
G0 F6000 X98.586 Y108.202
M204 S1000
G1 F1200 X103.274 Y112.891 E46.90879
M204 S4000
G0 F6000 X103.839 Y112.89
M204 S1000
G1 F1200 X98.773 Y107.824 E47.29006
M204 S4000
G0 F6000 X98.851 Y107.336
M204 S1000
G1 F1200 X104.405 Y112.89 E47.70805
M204 S4000
G0 F6000 X104.971 Y112.89
M204 S1000
G1 F1200 X99.141 Y107.06 E48.14681
M204 S4000
G0 F6000 X99.706 Y107.06
M204 S1000
G1 F1200 X105.536 Y112.89 E48.58557
M204 S4000
G0 F6000 X106.102 Y112.89
M204 S1000
G1 F1200 X100.272 Y107.06 E49.02433
M204 S4000
G0 F6000 X100.838 Y107.06
M204 S1000
G1 F1200 X106.668 Y112.89 E49.46309
M204 S4000
G0 F6000 X107.233 Y112.89
M204 S1000
G1 F1200 X101.403 Y107.06 E49.90185
M204 S4000
G0 F6000 X101.969 Y107.06
M204 S1000
G1 F1200 X107.799 Y112.89 E50.34061
M204 S4000
G0 F6000 X108.364 Y112.89
M204 S1000
G1 F1200 X102.535 Y107.06 E50.77933
M204 S4000
G0 F6000 X103.1 Y107.06
M204 S1000
G1 F1200 X108.93 Y112.89 E51.21809
M204 S4000
G0 F6000 X109.495 Y112.89
M204 S1000
G1 F1200 X103.666 Y107.06 E51.65682
M204 S4000
G0 F6000 X104.232 Y107.06
M204 S1000
G1 F1200 X110.061 Y112.89 E52.09554
M204 S4000
G0 F6000 X110.627 Y112.89
M204 S1000
G1 F1200 X104.797 Y107.06 E52.5343
M204 S4000
G0 F6000 X105.363 Y107.06
M204 S1000
G1 F1200 X111.193 Y112.89 E52.97306
M204 S4000
G0 F6000 X111.758 Y112.89
M204 S1000
G1 F1200 X105.929 Y107.06 E53.41178
M204 S4000
G0 F6000 X106.495 Y107.06
M204 S1000
G1 F1200 X112.324 Y112.89 E53.8505
M204 S4000
G0 F6000 X112.889 Y112.889
M204 S1000
G1 F1200 X107.06 Y107.06 E54.28919
M204 S4000
G0 F6000 X107.626 Y107.06
M204 S1000
G1 F1200 X113.455 Y112.889 E54.72788
M204 S4000
G0 F6000 X114.02 Y112.889
M204 S1000
G1 F1200 X108.192 Y107.06 E55.16652
M204 S4000
G0 F6000 X108.757 Y107.06
M204 S1000
G1 F1200 X114.586 Y112.889 E55.60521
M204 S4000
G0 F6000 X115.152 Y112.889
M204 S1000
G1 F1200 X109.323 Y107.06 E56.04389
M204 S4000
