;FLAVOR:Marlin
;TIME:4547
;Filament used: 3.54019m
;Layer height: 0.16
;MINX:73
;MINY:59
;MINZ:0.32
;MAXX:167
;MAXY:148
;MAXZ:9.08
;TARGET_MACHINE.NAME:Creality Ender-3 V3 SE
;Generated with Cura_SteamEngine 5.10.2
M220 S100 ;Reset Feedrate
M221 S100 ;Reset Flowrate

G28 ;Home

M420 S1; Use saved mesh leveling data

G92 E0 ;Reset Extruder
G1 Z2.0 F3000 ;Move Z Axis up
G1 X-3 Y20 Z0.28 F5000.0 ;Move to start position
M190 S80 ; Set bed temperature and wait
M109 S245 ; Set hotend temperature and wait
G1 X-3 Y100.0 Z0.28 F1500.0 E15 ;Draw the first line
G1 X-2 Y100.0 Z0.28 F5000.0 ;Move to side a little
G1 X-2 Y20 Z0.28 F1500.0 E30 ;Draw the second line
G92 E0 ;Reset Extruder
G1 E-1.0000 F1800 ;Retract a bit
G1 Z2.0 F3000 ;Move Z Axis up
G1 E0.0000 F1800 

M82 ;absolute extrusion mode
G92 E0
G92 E0
G1 F2400 E-0.8
;LAYER_COUNT:47
;LAYER:0
M107
M204 S4000
M205 X8 Y8
G1 F300 Z0.52
G0 F6000 X76.423 Y82.144 Z0.52
M204 S3000
;TYPE:SKIRT
G1 F300 Z0.32
G1 F2400 E0
G1 F900 X77.156 Y81.502 E0.05185
G1 X78.23 Y80.741 E0.1219
G1 X79.204 Y80.186 E0.18156
G1 X80.059 Y79.799 E0.2315
G1 X81.013 Y79.465 E0.28529
G1 X81.957 Y79.228 E0.33709
G1 X82.849 Y79.083 E0.38518
G1 X84.159 Y79.004 E0.45502
G1 X93.22 Y79.001 E0.93721
G1 X93.088 Y78.229 E0.97889
G1 X93 Y76.852 E1.05232
G1 X93 Y74.764 E1.16343
G1 X93.043 Y73.828 E1.2133
G1 X93.123 Y73.226 E1.24561
G1 X93.026 Y72.351 E1.29246
G1 X93 Y71.584 E1.3333
G1 X93.002 Y70.121 E1.41116
G1 X93.043 Y69.219 E1.45921
G1 X93.184 Y68.182 E1.5149
G1 X93.402 Y67.234 E1.56667
G1 X93.691 Y66.34 E1.61667
G1 X94.086 Y65.409 E1.67049
G1 X94.544 Y64.555 E1.72206
G1 X95.201 Y63.548 E1.78604
G1 X95.809 Y62.79 E1.83775
G1 X96.483 Y62.085 E1.88966
G1 X97.217 Y61.444 E1.94152
G1 X98.004 Y60.872 E1.99329
G1 X98.846 Y60.366 E2.04557
G1 X99.929 Y59.853 E2.10934
G1 X100.938 Y59.488 E2.16644
G1 X101.812 Y59.258 E2.21453
G1 X102.856 Y59.083 E2.27087
G1 X104.171 Y59.002 E2.34098
G1 X115.865 Y59.002 E2.96329
G1 X116.767 Y59.042 E3.01134
G1 X117.802 Y59.182 E3.06692
G1 X118.751 Y59.398 E3.11871
G1 X119.671 Y59.695 E3.17016
G1 X119.998 Y59.83 E3.18899
G1 X120.679 Y59.57 E3.22778
G1 X121.617 Y59.302 E3.27969
G1 X122.574 Y59.12 E3.33153
G1 X123.529 Y59.024 E3.38261
G1 X124.146 Y59.006 E3.41546
G1 X135.882 Y59 E4.04
G1 X136.854 Y59.046 E4.09179
G1 X137.749 Y59.165 E4.13984
G1 X138.768 Y59.395 E4.19543
G1 X139.696 Y59.695 E4.24733
G1 X140.592 Y60.075 E4.29912
G1 X141.45 Y60.533 E4.35088
G1 X142.266 Y61.065 E4.40272
G1 X143.037 Y61.672 E4.45494
G1 X143.933 Y62.528 E4.52088
G1 X144.597 Y63.296 E4.57491
G1 X145.208 Y64.143 E4.63049
G1 X145.704 Y64.982 E4.68235
G1 X146.095 Y65.796 E4.73041
G1 X146.462 Y66.773 E4.78595
G1 X146.712 Y67.678 E4.83591
G1 X146.893 Y68.672 E4.88968
G1 X146.981 Y69.623 E4.9405
G1 X146.994 Y70.105 E4.96616
G1 X147 Y71.591 E5.04524
G1 X146.958 Y72.562 E5.09697
G1 X146.877 Y73.186 E5.13045
G1 X146.976 Y74.079 E5.17826
G1 X147 Y74.832 E5.21836
G1 X146.994 Y76.917 E5.32931
G1 X146.951 Y77.819 E5.37737
G1 X146.789 Y79.003 E5.44096
G1 X155.893 Y79 E5.92544
G1 X156.865 Y79.046 E5.97723
G1 X157.76 Y79.165 E6.02527
G1 X158.779 Y79.395 E6.08087
G1 X159.705 Y79.694 E6.13265
G1 X160.538 Y80.044 E6.18073
G1 X161.461 Y80.534 E6.23634
G1 X162.278 Y81.066 E6.28823
G1 X163.086 Y81.701 E6.34292
G1 X163.914 Y82.482 E6.40349
G1 X164.514 Y83.157 E6.45155
G1 X165.137 Y83.998 E6.50724
G1 X165.625 Y84.799 E6.55716
G1 X166.073 Y85.704 E6.6109
G1 X166.423 Y86.611 E6.66263
G1 X166.694 Y87.549 E6.71459
G1 X166.878 Y88.502 E6.76624
G1 X166.974 Y89.4 E6.8143
G1 X166.998 Y90.103 E6.85174
G1 X167 Y91.621 E6.93252
G1 X166.955 Y92.592 E6.98425
G1 X166.876 Y93.19 E7.01635
G1 X166.976 Y94.08 E7.06401
G1 X167 Y94.805 E7.10261
G1 X166.999 Y96.921 E7.21522
G1 X166.959 Y97.823 E7.26326
G1 X166.819 Y98.859 E7.3189
G1 X166.602 Y99.808 E7.3707
G1 X166.302 Y100.733 E7.42245
G1 X165.935 Y101.598 E7.47246
G1 X165.46 Y102.489 E7.52619
G1 X164.928 Y103.304 E7.57798
G1 X164.768 Y103.508 E7.59178
G1 X164.994 Y103.806 E7.61168
G1 X165.514 Y104.629 E7.66349
G1 X165.96 Y105.495 E7.71533
G1 X166.323 Y106.384 E7.76643
G1 X166.513 Y106.963 E7.79886
G1 X166.769 Y107.955 E7.85338
G1 X166.917 Y108.846 E7.90144
G1 X167 Y110.2 E7.97363
G1 X167 Y111.636 E8.05005
G1 X166.96 Y112.538 E8.0981
G1 X166.875 Y113.184 E8.13277
G1 X166.976 Y114.08 E8.18076
G1 X167 Y114.81 E8.21963
G1 X166.998 Y116.875 E8.32952
G1 X166.957 Y117.777 E8.37757
G1 X166.817 Y118.814 E8.43325
G1 X166.606 Y119.735 E8.48354
G1 X166.159 Y121.041 E8.55699
G1 X165.709 Y122.017 E8.61419
G1 X165.258 Y122.799 E8.66223
G1 X164.657 Y123.655 E8.71789
G1 X164.028 Y124.397 E8.76965
G1 X163.335 Y125.082 E8.82151
G1 X162.641 Y125.659 E8.86954
G1 X161.939 Y126.153 E8.91522
G1 X161.105 Y126.656 E8.96705
G1 X160.229 Y127.083 E9.01891
G1 X159.321 Y127.43 E9.07064
G1 X158.383 Y127.698 E9.12255
G1 X157.426 Y127.88 E9.17439
G1 X156.471 Y127.976 E9.22547
G1 X155.854 Y127.994 E9.25832
G1 X146.771 Y127.999 E9.74168
G1 X146.893 Y128.672 E9.77808
G1 X146.981 Y129.623 E9.8289
G1 X146.994 Y130.105 E9.85456
G1 X147 Y131.591 E9.93364
G1 X146.958 Y132.562 E9.98536
G1 X146.877 Y133.186 E10.01885
G1 X146.976 Y134.079 E10.06666
G1 X147 Y134.832 E10.10675
G1 X146.994 Y136.917 E10.21771
G1 X146.951 Y137.819 E10.26577
G1 X146.809 Y138.855 E10.32141
G1 X146.59 Y139.802 E10.37314
G1 X146.299 Y140.695 E10.42312
G1 X145.897 Y141.634 E10.47748
G1 X145.295 Y142.72 E10.54356
G1 X144.647 Y143.659 E10.60427
G1 X144.044 Y144.379 E10.65425
G1 X143.328 Y145.092 E10.70802
G1 X142.581 Y145.713 E10.75972
G1 X141.84 Y146.23 E10.8078
G1 X140.932 Y146.748 E10.86343
G1 X140.058 Y147.15 E10.91462
G1 X139.441 Y147.38 E10.94966
G1 X138.577 Y147.644 E10.99774
G1 X137.553 Y147.858 E11.05341
G1 X136.592 Y147.971 E11.10491
G1 X135.83 Y148 E11.14549
G1 X124.154 Y148 E11.76684
G1 X123.252 Y147.96 E11.81489
G1 X122.217 Y147.82 E11.87047
G1 X121.263 Y147.602 E11.92254
G1 X120.245 Y147.268 E11.97956
G1 X120.004 Y147.166 E11.99349
G1 X119.306 Y147.432 E12.03324
G1 X118.37 Y147.7 E12.08505
G1 X117.413 Y147.883 E12.1369
G1 X116.457 Y147.98 E12.18804
G1 X115.853 Y147.998 E12.22019
G1 X104.104 Y147.998 E12.84543
G1 X103.202 Y147.958 E12.89348
G1 X102.167 Y147.818 E12.94906
G1 X101.218 Y147.602 E13.00085
G1 X100.292 Y147.303 E13.05264
G1 X99.426 Y146.936 E13.10269
G1 X98.528 Y146.457 E13.15685
G1 X97.56 Y145.812 E13.21875
G1 X96.68 Y145.096 E13.27912
G1 X95.987 Y144.413 E13.3309
G1 X95.356 Y143.671 E13.38274
G1 X94.794 Y142.876 E13.43455
G1 X94.303 Y142.035 E13.48637
G1 X93.905 Y141.19 E13.53608
G1 X93.62 Y140.441 E13.57873
G1 X93.356 Y139.577 E13.6268
G1 X93.142 Y138.553 E13.68247
G1 X93.029 Y137.592 E13.73397
G1 X93 Y136.83 E13.77455
G1 X93 Y134.764 E13.88449
G1 X93.043 Y133.828 E13.93435
G1 X93.123 Y133.226 E13.96667
G1 X93.026 Y132.351 E14.01352
G1 X93 Y131.584 E14.05436
G1 X93.002 Y130.121 E14.13222
G1 X93.043 Y129.219 E14.18027
G1 X93.21 Y127.995 E14.24601
G1 X84.118 Y128 E14.72985
G1 X83.146 Y127.954 E14.78163
G1 X82.251 Y127.835 E14.82968
G1 X81.232 Y127.605 E14.88527
G1 X80.304 Y127.305 E14.93717
G1 X79.408 Y126.925 E14.98897
G1 X78.55 Y126.467 E15.04072
G1 X77.734 Y125.935 E15.09256
G1 X76.963 Y125.328 E15.14478
G1 X76.067 Y124.472 E15.21073
G1 X75.403 Y123.704 E15.26475
G1 X74.792 Y122.857 E15.32033
G1 X74.296 Y122.018 E15.3722
G1 X73.905 Y121.204 E15.42025
G1 X73.538 Y120.227 E15.47579
G1 X73.288 Y119.322 E15.52576
G1 X73.107 Y118.328 E15.57953
G1 X73.019 Y117.377 E15.63035
G1 X73.006 Y116.881 E15.65675
G1 X73 Y114.797 E15.76766
G1 X73.043 Y113.824 E15.81949
G1 X73.122 Y113.22 E15.8519
G1 X73.026 Y112.351 E15.89843
G1 X73 Y111.554 E15.94087
G1 X73.006 Y110.071 E16.01979
G1 X73.05 Y109.169 E16.06784
G1 X73.193 Y108.133 E16.1235
G1 X73.415 Y107.184 E16.17536
G1 X73.72 Y106.253 E16.2275
G1 X74.149 Y105.269 E16.28462
G1 X74.699 Y104.272 E16.34522
G1 X75.234 Y103.488 E16.39573
G1 X74.849 Y102.948 E16.43102
G1 X74.416 Y102.225 E16.47587
G1 X73.952 Y101.302 E16.53085
G1 X73.619 Y100.463 E16.57888
G1 X73.322 Y99.46 E16.63455
G1 X73.131 Y98.506 E16.68632
G1 X73.027 Y97.577 E16.73607
G1 X73.002 Y96.839 E16.77537
G1 X73 Y94.775 E16.88521
G1 X73.042 Y93.837 E16.93517
G1 X73.123 Y93.225 E16.96802
G1 X73.026 Y92.351 E17.01482
G1 X73 Y91.593 E17.05518
G1 X73.001 Y90.137 E17.13267
G1 X73.042 Y89.235 E17.18072
G1 X73.182 Y88.199 E17.23635
G1 X73.391 Y87.28 E17.2865
G1 X73.782 Y86.106 E17.35235
G1 X74.143 Y85.278 E17.40042
G1 X74.644 Y84.36 E17.45608
G1 X75.186 Y83.553 E17.50781
G1 X75.798 Y82.795 E17.55965
G1 X76.423 Y82.144 E17.60768
M204 S4000
G0 F6000 X77.001 Y82.698
M204 S3000
G1 F900 X77.682 Y82.104 E17.65577
G1 X78.627 Y81.435 E17.71738
G1 X79.536 Y80.914 E17.77314
G1 X80.358 Y80.54 E17.8212
G1 X81.21 Y80.241 E17.86925
G1 X82.085 Y80.018 E17.9173
G1 X82.977 Y79.873 E17.96539
G1 X84.159 Y79.804 E18.0284
G1 X94.292 Y79.801 E18.56764
G1 X94.255 Y79.851 E18.57095
G1 X94.043 Y79.066 E18.61422
G1 X93.886 Y78.177 E18.66227
G1 X93.8 Y76.852 E18.73292
G1 X93.8 Y74.8 E18.84212
G1 X93.84 Y73.898 E18.89017
G1 X93.955 Y73.038 E18.93635
G1 X93.92 Y73.162 E18.9432
G1 X93.822 Y72.264 E18.99127
G1 X93.8 Y71.586 E19.02737
G1 X93.802 Y70.157 E19.10342
G1 X93.843 Y69.255 E19.15147
G1 X93.964 Y68.36 E19.19953
G1 X94.164 Y67.479 E19.24761
G1 X94.44 Y66.619 E19.29567
G1 X94.792 Y65.787 E19.34375
G1 X95.25 Y64.933 E19.39532
G1 X95.826 Y64.047 E19.45156
G1 X96.389 Y63.341 E19.49961
G1 X97.011 Y62.686 E19.54768
G1 X97.689 Y62.09 E19.59572
G1 X98.418 Y61.556 E19.64381
G1 X99.19 Y61.088 E19.69185
G1 X100.203 Y60.605 E19.75157
G1 X101.142 Y60.262 E19.80477
G1 X102.016 Y60.032 E19.85287
G1 X102.906 Y59.881 E19.90091
G1 X104.171 Y59.802 E19.96836
G1 X115.829 Y59.802 E20.58875
G1 X116.731 Y59.842 E20.6368
G1 X117.626 Y59.962 E20.68485
G1 X118.507 Y60.16 E20.73291
G1 X119.367 Y60.435 E20.78096
G1 X120.056 Y60.72 E20.82063
G1 X120.058 Y60.663 E20.82367
G1 X120.9 Y60.338 E20.8717
G1 X121.768 Y60.088 E20.91977
G1 X122.655 Y59.916 E20.96785
G1 X123.553 Y59.824 E21.01589
G1 X124.146 Y59.806 E21.04746
G1 X135.846 Y59.8 E21.67009
G1 X136.748 Y59.84 E21.71814
G1 X137.643 Y59.959 E21.76619
G1 X138.524 Y60.157 E21.81424
G1 X139.385 Y60.432 E21.86234
G1 X140.217 Y60.782 E21.91037
G1 X141.015 Y61.204 E21.95841
G1 X141.773 Y61.695 E22.00647
G1 X142.485 Y62.252 E22.05458
G1 X143.327 Y63.052 E22.11639
G1 X143.991 Y63.82 E22.17042
G1 X144.52 Y64.552 E22.21848
G1 X144.982 Y65.328 E22.26654
G1 X145.373 Y66.142 E22.31459
G1 X145.691 Y66.987 E22.36264
G1 X145.933 Y67.858 E22.41075
G1 X146.097 Y68.746 E22.4588
G1 X146.181 Y69.645 E22.50685
G1 X146.194 Y70.109 E22.53155
G1 X146.2 Y71.558 E22.60867
G1 X146.164 Y72.46 E22.6567
G1 X146.048 Y73.356 E22.70478
G1 X146.08 Y73.238 E22.71129
G1 X146.178 Y74.136 E22.75936
G1 X146.2 Y74.83 E22.79631
G1 X146.194 Y76.879 E22.90535
G1 X146.151 Y77.781 E22.95341
G1 X146.029 Y78.676 E23.00148
G1 X145.828 Y79.556 E23.04951
G1 X145.732 Y79.853 E23.06612
G1 X145.695 Y79.803 E23.06944
G1 X155.857 Y79.8 E23.61022
G1 X156.759 Y79.84 E23.65827
G1 X157.654 Y79.959 E23.70631
G1 X158.535 Y80.157 E23.75437
G1 X159.395 Y80.432 E23.80242
G1 X160.228 Y80.782 E23.8505
G1 X161.026 Y81.205 E23.89856
G1 X161.784 Y81.696 E23.94662
G1 X162.592 Y82.331 E24.00131
G1 X163.316 Y83.014 E24.05428
G1 X163.916 Y83.689 E24.10234
G1 X164.454 Y84.415 E24.15043
G1 X164.925 Y85.185 E24.19846
G1 X165.327 Y85.994 E24.24654
G1 X165.655 Y86.835 E24.29457
G1 X165.908 Y87.702 E24.34264
G1 X166.082 Y88.588 E24.39069
G1 X166.178 Y89.486 E24.43875
G1 X166.198 Y90.105 E24.47171
G1 X166.2 Y91.586 E24.55052
G1 X166.161 Y92.488 E24.59856
G1 X166.045 Y93.368 E24.6458
G1 X166.08 Y93.238 E24.65296
G1 X166.178 Y94.136 E24.70104
G1 X166.2 Y94.805 E24.73666
G1 X166.199 Y96.885 E24.84735
G1 X166.159 Y97.787 E24.8954
G1 X166.039 Y98.682 E24.94345
G1 X165.84 Y99.563 E24.99151
G1 X165.564 Y100.423 E25.03958
G1 X165.213 Y101.255 E25.08763
G1 X164.79 Y102.053 E25.1357
G1 X164.298 Y102.81 E25.18374
G1 X163.754 Y103.5 E25.2305
G1 X164.319 Y104.235 E25.27984
G1 X164.804 Y104.997 E25.32791
G1 X165.22 Y105.799 E25.37598
G1 X165.563 Y106.634 E25.42402
G1 X165.753 Y107.213 E25.45645
G1 X165.979 Y108.087 E25.50449
G1 X166.127 Y108.978 E25.55256
G1 X166.2 Y110.2 E25.6177
G1 X166.2 Y111.6 E25.69221
G1 X166.16 Y112.502 E25.74025
G1 X166.045 Y113.362 E25.78643
G1 X166.08 Y113.238 E25.79328
G1 X166.178 Y114.136 E25.84136
G1 X166.2 Y114.81 E25.87724
G1 X166.198 Y116.839 E25.98522
G1 X166.157 Y117.741 E26.03327
G1 X166.037 Y118.636 E26.08132
G1 X165.837 Y119.517 E26.1294
G1 X165.432 Y120.707 E26.1963
G1 X165.015 Y121.617 E26.24956
G1 X164.564 Y122.399 E26.2976
G1 X164.045 Y123.139 E26.3457
G1 X163.464 Y123.829 E26.39371
G1 X162.823 Y124.466 E26.4418
G1 X162.129 Y125.043 E26.48983
G1 X161.524 Y125.469 E26.5292
G1 X160.752 Y125.938 E26.57727
G1 X159.942 Y126.337 E26.62532
G1 X159.1 Y126.662 E26.67335
G1 X158.232 Y126.912 E26.72142
G1 X157.345 Y127.084 E26.76951
G1 X156.447 Y127.176 E26.81754
G1 X155.854 Y127.194 E26.84912
G1 X145.699 Y127.199 E27.38953
G1 X145.736 Y127.149 E27.39284
G1 X145.933 Y127.858 E27.432
G1 X146.097 Y128.746 E27.48005
G1 X146.181 Y129.645 E27.5281
G1 X146.194 Y130.109 E27.5528
G1 X146.2 Y131.558 E27.62991
G1 X146.164 Y132.46 E27.67795
G1 X146.048 Y133.356 E27.72603
G1 X146.08 Y133.238 E27.73254
G1 X146.178 Y134.136 E27.78061
G1 X146.2 Y134.83 E27.81756
G1 X146.194 Y136.879 E27.9266
G1 X146.151 Y137.781 E27.97466
G1 X146.029 Y138.676 E28.02273
G1 X145.828 Y139.556 E28.07076
G1 X145.55 Y140.415 E28.11881
G1 X145.197 Y141.247 E28.16691
G1 X144.616 Y142.299 E28.23086
G1 X144.033 Y143.146 E28.28558
G1 X143.454 Y143.839 E28.33364
G1 X142.815 Y144.478 E28.38173
G1 X142.123 Y145.057 E28.42974
G1 X141.382 Y145.574 E28.47783
G1 X140.598 Y146.022 E28.52588
G1 X139.778 Y146.4 E28.57393
G1 X139.207 Y146.614 E28.60638
G1 X138.343 Y146.878 E28.65446
G1 X137.459 Y147.064 E28.70253
G1 X136.562 Y147.171 E28.7506
G1 X135.8 Y147.2 E28.79118
G1 X124.19 Y147.2 E29.40902
G1 X123.288 Y147.16 E29.45707
G1 X122.393 Y147.04 E29.50513
G1 X121.512 Y146.842 E29.55318
G1 X120.528 Y146.52 E29.60828
G1 X119.953 Y146.273 E29.64158
G1 X119.927 Y146.338 E29.64531
G1 X119.085 Y146.664 E29.69336
G1 X118.217 Y146.914 E29.74142
G1 X117.331 Y147.087 E29.78946
G1 X116.433 Y147.18 E29.83751
G1 X115.829 Y147.198 E29.86967
G1 X104.14 Y147.198 E30.49171
G1 X103.238 Y147.158 E30.53976
G1 X102.343 Y147.038 E30.58781
G1 X101.462 Y146.84 E30.63587
G1 X100.602 Y146.565 E30.68391
G1 X99.769 Y146.214 E30.73202
G1 X98.971 Y145.791 E30.78008
G1 X98.034 Y145.168 E30.83996
G1 X97.24 Y144.525 E30.89433
G1 X96.595 Y143.893 E30.94239
G1 X96.008 Y143.207 E30.99043
G1 X95.484 Y142.472 E31.03847
G1 X95.027 Y141.693 E31.08653
G1 X94.641 Y140.876 E31.13462
G1 X94.386 Y140.207 E31.17272
G1 X94.122 Y139.343 E31.2208
G1 X93.936 Y138.459 E31.26887
G1 X93.829 Y137.562 E31.31694
G1 X93.8 Y136.8 E31.35752
G1 X93.8 Y134.8 E31.46396
G1 X93.84 Y133.898 E31.512
G1 X93.955 Y133.038 E31.55818
G1 X93.92 Y133.162 E31.56503
G1 X93.822 Y132.264 E31.61311
G1 X93.8 Y131.586 E31.64921
G1 X93.802 Y130.157 E31.72525
G1 X93.843 Y129.255 E31.7733
G1 X93.964 Y128.36 E31.82136
G1 X94.164 Y127.479 E31.86944
G1 X94.271 Y127.145 E31.8881
G1 X94.308 Y127.195 E31.89141
G1 X84.154 Y127.2 E32.43177
G1 X83.252 Y127.16 E32.47982
G1 X82.357 Y127.041 E32.52787
G1 X81.476 Y126.843 E32.57592
G1 X80.615 Y126.568 E32.62402
G1 X79.783 Y126.218 E32.67205
G1 X78.985 Y125.796 E32.72009
G1 X78.227 Y125.305 E32.76815
G1 X77.515 Y124.748 E32.81626
G1 X76.673 Y123.948 E32.87807
G1 X76.009 Y123.18 E32.9321
G1 X75.48 Y122.448 E32.98016
G1 X75.018 Y121.672 E33.02822
G1 X74.627 Y120.858 E33.07628
G1 X74.309 Y120.013 E33.12432
G1 X74.067 Y119.142 E33.17243
G1 X73.903 Y118.254 E33.22048
G1 X73.819 Y117.355 E33.26853
G1 X73.806 Y116.879 E33.29387
G1 X73.8 Y114.83 E33.40292
G1 X73.837 Y113.928 E33.45096
G1 X73.955 Y113.03 E33.49916
G1 X73.92 Y113.162 E33.50642
G1 X73.822 Y112.264 E33.55449
G1 X73.8 Y111.558 E33.59208
G1 X73.806 Y110.109 E33.66919
G1 X73.85 Y109.207 E33.71725
G1 X73.973 Y108.312 E33.76533
G1 X74.175 Y107.432 E33.81338
G1 X74.454 Y106.573 E33.86144
G1 X74.883 Y105.589 E33.91857
G1 X75.361 Y104.722 E33.97125
